svgs/thin/suitcase-medical.svg

<svg xmlns="http://www.w3.org/2000/svg" viewBox="0 0 512 512"><!--! Font Awesome Pro 6.6.0 by @fontawesome - https://fontawesome.com License - https://fontawesome.com/license (Commercial License) Copyright 2024 Fonticons, Inc. --><path d="M168 16l176 0c13.3 0 24 10.7 24 24l0 56L144 96l0-56c0-13.3 10.7-24 24-24zM128 40l0 56L64 96C28.7 96 0 124.7 0 160L0 416c0 35.3 28.7 64 64 64l384 0c35.3 0 64-28.7 64-64l0-256c0-35.3-28.7-64-64-64l-64 0 0-56c0-22.1-17.9-40-40-40L168 0c-22.1 0-40 17.9-40 40zm8 72l240 0 32 0 0 352-304 0 0-352 32 0zM88 464l-24 0c-26.5 0-48-21.5-48-48l0-256c0-26.5 21.5-48 48-48l24 0 0 352zM424 112l24 0c26.5 0 48 21.5 48 48l0 256c0 26.5-21.5 48-48 48l-24 0 0-352zM232 200c0-4.4 3.6-8 8-8l32 0c4.4 0 8 3.6 8 8l0 56c0 4.4 3.6 8 8 8l56 0c4.4 0 8 3.6 8 8l0 32c0 4.4-3.6 8-8 8l-56 0c-4.4 0-8 3.6-8 8l0 56c0 4.4-3.6 8-8 8l-32 0c-4.4 0-8-3.6-8-8l0-56c0-4.4-3.6-8-8-8l-56 0c-4.4 0-8-3.6-8-8l0-32c0-4.4 3.6-8 8-8l56 0c4.4 0 8-3.6 8-8l0-56zm8-24c-13.3 0-24 10.7-24 24l0 48-48 0c-13.3 0-24 10.7-24 24l0 32c0 13.3 10.7 24 24 24l48 0 0 48c0 13.3 10.7 24 24 24l32 0c13.3 0 24-10.7 24-24l0-48 48 0c13.3 0 24-10.7 24-24l0-32c0-13.3-10.7-24-24-24l-48 0 0-48c0-13.3-10.7-24-24-24l-32 0z"/></svg>

<svg xmlns="http://www.w3.org/2000/svg" viewBox="0 0 512 512"><!--! Font Awesome Pro 6.4.2 by @fontawesome - https://fontawesome.com License - https://fontawesome.com/license (Commercial License) Copyright 2023 Fonticons, Inc. --><path d="M168 16H344c13.3 0 24 10.7 24 24V96H144V40c0-13.3 10.7-24 24-24zM128 40V96H64C28.7 96 0 124.7 0 160V416c0 35.3 28.7 64 64 64H448c35.3 0 64-28.7 64-64V160c0-35.3-28.7-64-64-64H384V40c0-22.1-17.9-40-40-40H168c-22.1 0-40 17.9-40 40zm8 72H376h32V464H104V112h32zM88 464H64c-26.5 0-48-21.5-48-48V160c0-26.5 21.5-48 48-48H88V464zM424 112h24c26.5 0 48 21.5 48 48V416c0 26.5-21.5 48-48 48H424V112zM232 200c0-4.4 3.6-8 8-8h32c4.4 0 8 3.6 8 8v56c0 4.4 3.6 8 8 8h56c4.4 0 8 3.6 8 8v32c0 4.4-3.6 8-8 8H288c-4.4 0-8 3.6-8 8v56c0 4.4-3.6 8-8 8H240c-4.4 0-8-3.6-8-8V320c0-4.4-3.6-8-8-8H168c-4.4 0-8-3.6-8-8V272c0-4.4 3.6-8 8-8h56c4.4 0 8-3.6 8-8V200zm8-24c-13.3 0-24 10.7-24 24v48H168c-13.3 0-24 10.7-24 24v32c0 13.3 10.7 24 24 24h48v48c0 13.3 10.7 24 24 24h32c13.3 0 24-10.7 24-24V328h48c13.3 0 24-10.7 24-24V272c0-13.3-10.7-24-24-24H296V200c0-13.3-10.7-24-24-24H240z"/></svg>
